X:1
T:Title
%%score { ( 1 3 ) | ( 2 4 ) }
L:1/8
M:4/4
K:G
V:1 treble nm="Grand Piano"
V:3 treble 
V:2 bass 
V:4 bass 
V:1
 z4 z2[Q:1/4=100] [B,G][CA] | [DB]2 [DA][DG] z A,[G,DG][DA] | [DB]2 [DA][G,DG] [G,CE]2 [CEA][EB] | %3
 [Ec]2 BA B2 AG |[M:3/4] A6 |[M:1/4] Bc |[M:4/4] d2 cB A2 AB | c2 BA B2 [DG]A | B2 AG EAGF | %9
 [B,DG]6 z2 | [EG]4 [CE]4 | [CEA]2 [CEG][G,CE] [G,B,D]4 | B2 AB d2 cB | A6[K:bass][K:treble] z2 | %14
 d2 BG [FA]2 [GB][FA] | [EG]2 [EG][CE] [B,D]2 [DG]A | B2 AG EAGF |[M:3/4] [B,DG]6 |] %18
V:2
 z4 z2 [G,,G,][G,,G,] | [G,,G,]2 [A,,F,][B,,G,] [D,F,]C,B,,[A,,F,] | %2
 [G,,G,]2 [A,,F,]B,, C,2 B,,[B,,^G,] | [A,,A,]2 [D,F,D][D,F,D] [G,D]2 [F,A,D][E,A,^C] | %4
[M:3/4] [D,F,D]6 |[M:1/4] [G,D][G,A,D] |[M:4/4] z2 z D z4 | %7
 [D,A,D]2 [D,G,D][D,F,D] [G,D]2 [B,,G,][D,F,D] | z4 .[G,C]2 z2 | G,,6 z2 | C,2 C,2 C,2 C,2 | %11
 C,2 C,C, G,,4 | [G,D]2 [D,F,D][G,D] [G,B,D]2 [F,A,D][G,D] | D6[K:treble] z2 | %14
 [G,B,D]2 [G,DG][G,B,][K:bass] [D,D]2 [D,D][D,C] | [E,B,]2 [C,C][C,G,] [G,,G,]2 [B,,G,][D,F,D] | %16
 z4 .[G,C]2 z2 |[M:3/4] G,,6 |] %18
V:3
 x8 | z4 D2 z2 | x8 | x8 |[M:3/4] x6 |[M:1/4] x2 |[M:4/4] x8 | x8 | x8 | x8 | C2 C2 G,2 G,2 | x8 | %12
 x8 | z2[K:bass] F,F, F,2[K:treble] Bc | x8 | x8 | x8 |[M:3/4] x6 |] %18
V:4
 x8 | x8 | x8 | x8 |[M:3/4] x6 |[M:1/4] x2 | %6
[M:4/4] [G,B,D]2 [F,A,D]G,- [D,-F,-G,D-][D,F,D][D,F,D][D,G,D] | x8 | %8
 [G,D]2 [D,F,C][E,G,B,] C,-[C,CE][D,B,D][D,A,D] | x8 | x8 | x8 | x8 | %13
 [D,F,]2 D,D, D,2[K:treble] [G,D][G,A,D] | x4[K:bass] x4 | x8 | %16
 [G,D]2 [D,F,C][E,G,B,] C,-[C,CE][D,B,D][D,A,D] |[M:3/4] x6 |] %18

